src/icons/new-folder.svg

<svg width="16" height="16" xmlns="http://www.w3.org/2000/svg"><path fill-rule="evenodd" clip-rule="evenodd" d="M7 3H4V0H3v3H0v1h3v3h1V4h3V3zM5.5 7H5V6h.3l.8-.9.4-.1H14V4H8V3h6.5l.5.5v10l-.5.5h-13l-.5-.5V5h1v8h12V6H6.7l-.8.9-.4.1z"/></svg>

<svg width="16" height="16" viewBox="0 0 16 16" fill="none" xmlns="http://www.w3.org/2000/svg">
<path fill-rule="evenodd" clip-rule="evenodd" d="M7 3H4V0H3V3H0V4H3V7H4V4H7V3ZM5.5 7H5V6H5.3L6.1 5.1L6.5 5H14V4H8V3H14.5L15 3.5V13.5L14.5 14H1.5L1 13.5V6.5V6V5H2V6V6.5V13H14V7V6H6.7L5.9 6.9L5.5 7Z" fill="#C5C5C5"/>
</svg>
